X:1
T:Title
%%score { ( 1 3 ) | ( 2 4 ) }
L:1/8
M:4/4
K:Eb
V:1 treble nm="Grand Piano"
V:3 treble 
V:2 bass 
V:4 bass 
V:1
 z4 z2[Q:1/4=90] [EG]>[FA] | [GB]>[Ge] [Ad]>[Ac] [GB]>G E>F | G>_G =G>A G2 G>G | %3
 [DF]>[EG] [FA]>[GB] [Ad]>[Ac] [GB]>[FA] | [EG]>[FA] [GB]>[Ac] [GB]2 [EG]>[FA] | %5
 [GB]>[Ge] [Ad]>[Ac] [GB]>G E>F | G>_G =G>A G2 G>G | F>B B>d d>c G>=A |[M:3/4] B2- [FB-]2 [GB]2 | %9
[M:1/4] [AB]>[AB] |[M:4/4] e2- [Ge-]2 [Ge]2 [Gd]>[Gc] | z2 [GB]4 z2 | %12
 [B,GB]>[FA] [B,=EG]>[FA] [Ad]2 [DAc]2 | [EGB]6 [DAB]>[B,AB] | e6 z2 | z2 [GB]4 z2 | %16
 B>c B>A G>A [EG]>[DF] |[M:3/4] E6 |] %18
V:2
 z4 z2 [E,B,]>[E,B,] | [E,B,]>[E,B,] [E,C]>[E,D] [E,E]>[E,B,E] [E,G,]>[E,A,E] | %2
 [E,B,E]>[E,=A,E] [E,B,E]>[E,CE] [E,B,E]2 [E,B,E]>[E,B,E] | %3
 [B,,B,]>[B,,B,] [B,,B,]>[B,,B,] [B,,B,]>[B,,B,] [B,,B,]>[B,,B,] | %4
 [E,B,]>[E,B,] [E,E]>[E,E] [E,E]2 [E,B,]>[E,B,] | %5
 [E,B,]>[E,B,] [E,C]>[E,D] [E,E]>[E,B,E] [E,G,]>[E,A,E] | %6
 [E,B,E]>[E,=A,E] [E,B,E]>[E,CE] [E,B,E]2 [E,B,E]>[E,B,E] | %7
 [F,B,D]>[F,DF] [F,DF]>[F,B,F] [F,B,F]>[F,=A,E] [F,A,E]>[F,CE] |[M:3/4] [B,,B,]2 [A,D]2 [G,E]2 | %9
[M:1/4] [F,D]>[F,B,] |[M:4/4] [E,B,]2 [B,,B,]2 [E,B,]2 [B,,B,]>[B,,B,] | [E,B,]2 z2 z4 | %12
 z z/ B,/ z z/ B,/ [F,B,]2 B,,2 | E,>F, G,>C B,2 B,,>B,, | %14
 [E,B,]2 [B,,B,]2 [E,B,]2 [B,,B,]>[B,,B,] | z z/ A/ B,,2 E,2[K:treble] [A,E]>[A,E] | %16
 [G,B,E]>[A,E] [G,B,E]>[A,CE] [B,E]>[B,F][K:bass] [B,,B,]>[B,,A,] |[M:3/4] [E,G,]6 |] %18
V:3
 x8 | x8 | x8 | x8 | x8 | x8 | x8 | x8 |[M:3/4] D2 z2 z2 |[M:1/4] x2 |[M:4/4] G2 z2 z4 | %11
 [EG]>c E2 E2 [EGc]>[B,EG] | x8 | x8 | G2 G2 G2 [Gd]>[Gc] | [EG]>c E2 E2 c>c | x8 |[M:3/4] x6 |] %18
V:4
 x8 | x8 | x8 | x8 | x8 | x8 | x8 | x8 |[M:3/4] x6 |[M:1/4] x2 |[M:4/4] x8 | %11
 z z/ A/ B,,2 E,2 B,,>B,, | D,2 B,,2 z4 | x8 | x8 | [E,B,]2 z2 z4[K:treble] | x6[K:bass] x2 | %17
[M:3/4] x6 |] %18

